src/actions/16/sqrt.svg

<svg viewBox="0 0 16 16" xmlns="http://www.w3.org/2000/svg">
 <defs>
  <style type="text/css">.ColorScheme-Text {
        color:#2e3440;
      }</style>
 </defs>
 <path class="ColorScheme-Text" d="m7.6562 3-0.125 0.34375-2.625 7.4688-1.4688-2.5625-0.15625-0.25h-0.28125-1v1h0.71875l1.8438 3.25 0.53125 0.9375 0.375-1.0312 2.875-8.1562h5.6562v-1h-6-0.34375zm3.3438 3c-1.662 0-3 1.338-3 3s1.338 3 3 3c0.7733 0 1.4691-0.30407 2-0.78125v0.78125h1v-3-3h-1v0.78125c-0.53088-0.47718-1.2267-0.78125-2-0.78125zm0 1c1.108 0 2 0.892 2 2s-0.892 2-2 2-2-0.892-2-2 0.892-2 2-2z" fill="currentColor"/>
</svg>

<svg xmlns="http://www.w3.org/2000/svg" viewBox="0 0 16 16">
  <defs id="defs3051">
    <style type="text/css" id="current-color-scheme">
      .ColorScheme-Text {
        color:#2e3440;
      }
      </style>
  </defs>
 <path style="fill:currentColor;fill-opacity:1;stroke:none" 
     d="M 7.65625 3 L 7.53125 3.34375 L 4.90625 10.8125 L 3.4375 8.25 L 3.28125 8 L 3 8 L 2 8 L 2 9 L 2.71875 9 L 4.5625 12.25 L 5.09375 13.1875 L 5.46875 12.15625 L 8.34375 4 L 14 4 L 14 3 L 8 3 L 7.65625 3 z M 11 6 C 9.338 6 8 7.338 8 9 C 8 10.662 9.338 12 11 12 C 11.7733 12 12.46912 11.69593 13 11.21875 L 13 12 L 14 12 L 14 9 L 14 6 L 13 6 L 13 6.78125 C 12.46912 6.30407 11.7733 6 11 6 z M 11 7 C 12.108 7 13 7.892 13 9 C 13 10.108 12.108 11 11 11 C 9.892 11 9 10.108 9 9 C 9 7.892 9.892 7 11 7 z "
     class="ColorScheme-Text"
     />
</svg>
